app/images/icons/sponsors/sketch3.svg

<svg height="49" viewBox="0 0 55 49" width="55" xmlns="http://www.w3.org/2000/svg"><g fill="none"><path d="m27.79.035-15.19 1.606-11.76 15.799 26.95 31.405 26.95-31.405-11.758-15.8z" fill="#fab313"/><path d="m.84 17.44 26.95 31.4-16.035-31.4zm42.985 0-16.035 31.4 26.95-31.4z" fill="#eb6d07"/><path d="m11.755 17.44 16.035 31.4 16.035-31.4z" fill="#f8ac11"/><path d="m12.599 1.64-.844 15.8 16.035-17.405zm31.226 15.8-.843-15.8-15.192-1.604z" fill="#fdd233"/><path d="m43.825 17.44h10.915l-11.758-15.8zm-42.985 0h10.915l.844-15.8z" fill="#f8ac11"/><path d="m27.79.035-16.035 17.405h32.07z" fill="#feeeb7"/></g></svg>

<svg xmlns="http://www.w3.org/2000/svg" width="55" height="49" viewBox="0 0 55 49">
    <g fill="none" fill-rule="nonzero">
        <path fill="#FAB313" d="M27.79.035L12.6 1.641.84 17.44l26.95 31.405L54.74 17.44 42.982 1.64z"/>
        <path fill="#EB6D07" d="M.84 17.44l26.95 31.4-16.035-31.4zM43.825 17.44L27.79 48.84l26.95-31.4z"/>
        <path fill="#F8AC11" d="M11.755 17.44l16.035 31.4 16.035-31.4z"/>
        <path fill="#FDD233" d="M12.599 1.64l-.844 15.8L27.79.035zM43.825 17.44l-.843-15.8L27.79.036z"/>
        <path fill="#F8AC11" d="M43.825 17.44H54.74L42.982 1.64zM.84 17.44h10.915l.844-15.8z"/>
        <path fill="#FEEEB7" d="M27.79.035L11.755 17.44h32.07z"/>
    </g>
</svg>
